public/operators/withbg/betway.svg

<svg width="150" height="120" viewBox="0 0 150 120" fill="none" xmlns="http://www.w3.org/2000/svg">
<rect width="150" height="120" fill="black"/>
<path d="M20.9879 50.1549C21.544 49.9919 22.1107 49.8672 22.6841 49.7817C23.3666 49.6825 24.0557 49.6357 24.7454 49.6418C26.0496 49.6204 27.3431 49.8769 28.5383 50.394C29.6155 50.8635 30.5762 51.56 31.3535 52.435C32.1323 53.3459 32.7217 54.4001 33.088 55.5372C33.489 56.761 33.6879 58.0409 33.6769 59.3275C33.7119 60.9203 33.4338 62.5046 32.8583 63.9925C32.3618 65.2426 31.5749 66.3593 30.5614 67.2521C29.5453 68.1262 28.3556 68.7798 27.0689 69.1706C25.6379 69.6043 24.1481 69.8177 22.6517 69.8033C21.0556 69.8192 19.4622 69.6668 17.8989 69.3485C16.5731 69.0686 15.27 68.6924 14 68.2231V43H20.9879V50.1549ZM20.9879 64.4677C21.5857 64.6342 22.2046 64.7147 22.8255 64.7068C23.9361 64.7427 25.005 64.2863 25.7408 63.4618C26.4868 62.6299 26.8588 61.3577 26.8568 59.6453C26.8568 57.9834 26.4907 56.7579 25.7584 55.9687C25.0544 55.1893 24.0402 54.7554 22.9845 54.782C22.6354 54.7792 22.2871 54.8125 21.945 54.8812C21.621 54.9476 21.3015 55.0333 20.9879 55.1377V64.4677Z" fill="white"/>
<path d="M41.3126 61.0273C41.3656 62.1936 41.7454 63.0964 42.4522 63.7359C43.1879 64.3953 44.1549 64.7438 45.1466 64.7068C45.9259 64.7271 46.6989 64.5642 47.4023 64.2316C48.0788 63.8724 48.6709 63.3756 49.1397 62.7738L53.4126 66.0947C52.9774 66.6327 52.4836 67.1216 51.9402 67.5525C50.685 68.544 49.204 69.2166 47.6261 69.5118C46.606 69.7028 45.5694 69.7946 44.5312 69.7858C43.2066 69.7961 41.89 69.5821 40.6382 69.1531C38.2073 68.3402 36.2591 66.5124 35.3082 64.1528C34.7492 62.7626 34.4778 61.2754 34.5102 59.7794C34.484 58.3148 34.7419 56.8588 35.2699 55.4905C35.7285 54.3001 36.4302 53.2163 37.3312 52.3067C38.2273 51.4196 39.3103 50.7396 40.5028 50.3153C41.7624 49.8579 43.0953 49.6297 44.437 49.6418C47.3385 49.6418 49.6471 50.5709 51.363 52.4291C53.079 54.2873 53.9505 57.1533 53.978 61.0273H41.3126ZM47.4229 57.3507C47.3963 56.4592 47.0652 55.603 46.4836 54.922C45.9901 54.3506 45.267 54.024 44.5076 54.0298C43.7086 54.0323 42.9475 54.3678 42.411 54.9541C41.7892 55.6139 41.415 56.4651 41.3508 57.3653L47.4229 57.3507Z" fill="white"/>
<path d="M53.8103 54.9016V50.0791H56.5666V45.213H63.5545V50.0791H66.517L68.2426 54.9016H63.5545V62.6484C63.5338 63.1712 63.6076 63.6936 63.7724 64.1907C63.9197 64.561 64.2465 64.7447 64.753 64.7447C65.2277 64.744 65.696 64.6363 66.1224 64.4298C66.5383 64.2328 66.933 63.9944 67.3003 63.7184L69.0966 67.9082C68.223 68.5122 67.2605 68.9794 66.2431 69.2931C65.0821 69.6269 63.877 69.7861 62.6682 69.7654C61.6832 69.7914 60.7019 69.6372 59.7734 69.3106C59.0441 69.0444 58.3926 68.6037 57.877 68.0277C57.3824 67.4435 57.0333 66.7524 56.8581 66.0101C56.6525 65.1426 56.5536 64.2537 56.5637 63.3627V54.9074L53.8103 54.9016Z" fill="white"/>
<path d="M74.512 69.3718L65.8779 45.2042H72.6332L77.6393 60.3188L80.6341 50.0791H85.175L88.1698 60.3188L91.0439 50.0791H98.1908L91.2824 69.3718H85.9318L82.8574 59.2488L79.8243 69.3718H74.512Z" fill="white"/>
<path d="M109.151 69.3718L108.592 67.8673C107.962 68.4274 107.231 68.8638 106.436 69.1531C105.428 69.5267 104.358 69.7078 103.282 69.6867C102.427 69.6946 101.576 69.5616 100.765 69.2931C100.02 69.0449 99.3341 68.648 98.7504 68.1268C98.178 67.6149 97.7214 66.9889 97.4106 66.29C97.0796 65.5148 96.9171 64.6794 96.9335 63.838C96.876 62.1664 97.6236 60.5672 98.9477 59.5287C99.6054 59.0109 100.341 58.5977 101.127 58.3041C101.975 57.9801 102.859 57.7542 103.759 57.6306C104.613 57.4994 105.403 57.4003 106.136 57.339C106.869 57.2778 107.541 57.2253 108.153 57.1991V56.7209C108.153 55.9279 107.9 55.3506 107.393 54.9715C106.872 54.5974 106.241 54.4028 105.597 54.4176C104.849 54.4134 104.109 54.5612 103.421 54.852C102.717 55.1645 102.058 55.5664 101.46 56.0474L98.3293 52.6216C99.3891 51.7029 100.598 50.9676 101.904 50.4465C103.416 49.8869 105.023 49.6187 106.637 49.6564C109.189 49.6564 111.224 50.2696 112.744 51.4961C114.263 52.7226 115.022 54.6266 115.02 57.2078V69.3718H109.151ZM108.153 60.6249C107.753 60.6512 107.355 60.6833 106.955 60.7241C106.554 60.7649 106.142 60.8232 105.718 60.9019C104.893 61.0331 104.304 61.3159 103.951 61.7504C103.611 62.1614 103.428 62.6772 103.433 63.2082C103.418 63.7264 103.633 64.225 104.022 64.5727C104.47 64.9511 105.05 65.1424 105.638 65.1063C106.107 65.1123 106.574 65.0322 107.013 64.8701C107.422 64.7139 107.805 64.5009 108.153 64.2374V60.6249Z" fill="white"/>
<path d="M116.808 71.506C117.227 71.7349 117.669 71.9206 118.127 72.06C118.577 72.2084 119.048 72.2881 119.523 72.2962C119.948 72.3109 120.37 72.2101 120.742 72.0046C121.097 71.7613 121.368 71.4164 121.519 71.0162L122.638 68.5263L114.372 50.0791H121.958L125.901 61.3451L129.815 50.0791H137L127.259 72.9289C126.568 74.5344 125.629 75.6676 124.443 76.3285C123.163 77.0105 121.725 77.3511 120.271 77.3169C119.33 77.3251 118.391 77.2193 117.476 77.002C116.642 76.7955 115.827 76.5174 115.041 76.171L116.808 71.506Z" fill="white"/>
</svg>

<svg xmlns="http://www.w3.org/2000/svg" width="150" height="120" fill="none"><path fill="#000" d="M0 0h150v120H0z"/><path fill="#fff" d="M20.99 50.15a12.68 12.68 0 0 1 3.76-.5c1.3-.03 2.6.23 3.79.74a8.09 8.09 0 0 1 4.55 5.15c.4 1.22.6 2.5.59 3.79.03 1.59-.25 3.17-.82 4.66a8.55 8.55 0 0 1-2.3 3.26 9.66 9.66 0 0 1-3.5 1.92c-1.42.43-2.91.65-4.4.63a22.7 22.7 0 0 1-4.76-.45 27.84 27.84 0 0 1-3.9-1.13V43h6.99v7.15Zm0 14.32c.6.16 1.21.24 1.84.24a3.75 3.75 0 0 0 2.91-1.25c.75-.83 1.12-2.1 1.12-3.81 0-1.67-.37-2.9-1.1-3.68a3.62 3.62 0 0 0-2.78-1.19c-.34 0-.7.03-1.04.1-.32.07-.64.15-.95.26v9.33ZM41.31 61.03a3.7 3.7 0 0 0 1.14 2.7c.74.67 1.7 1.01 2.7.98.78.02 1.55-.15 2.25-.48a5.43 5.43 0 0 0 1.74-1.46l4.27 3.32a9.9 9.9 0 0 1-5.79 3.42c-1.01.2-2.05.28-3.09.28-1.32 0-2.64-.2-3.9-.64a8.72 8.72 0 0 1-5.32-5 11.08 11.08 0 0 1-.8-4.37c-.03-1.47.23-2.92.76-4.29a8.61 8.61 0 0 1 5.23-5.18c1.26-.45 2.6-.68 3.94-.67 2.9 0 5.2.93 6.92 2.79 1.72 1.86 2.59 4.72 2.62 8.6H41.3Zm6.11-3.68a3.92 3.92 0 0 0-.94-2.43c-.49-.57-1.21-.9-1.97-.89-.8 0-1.56.34-2.1.92-.62.66-1 1.52-1.06 2.42l6.07-.02ZM53.81 54.9v-4.82h2.76V45.2h6.98v4.87h2.97l1.72 4.82h-4.69v7.75c-.02.52.06 1.04.22 1.54.15.37.48.55.98.55.48 0 .95-.1 1.37-.31.42-.2.81-.44 1.18-.71l1.8 4.19a10.41 10.41 0 0 1-6.43 1.86 8.08 8.08 0 0 1-2.9-.46 4.71 4.71 0 0 1-1.9-1.28A4.85 4.85 0 0 1 56.87 66c-.2-.87-.3-1.76-.3-2.65v-8.45h-2.75ZM74.51 69.37 65.88 45.2h6.75l5 15.12 3-10.24h4.55l2.99 10.24 2.87-10.24h7.15l-6.9 19.3h-5.36l-3.07-10.13-3.04 10.12h-5.3ZM109.15 69.37l-.56-1.5c-.63.56-1.36 1-2.15 1.28a8.6 8.6 0 0 1-3.16.54c-.85 0-1.7-.13-2.52-.4a5.76 5.76 0 0 1-2.01-1.16 5.42 5.42 0 0 1-1.82-4.3 5.25 5.25 0 0 1 2.02-4.3c.66-.52 1.4-.93 2.18-1.23.84-.32 1.73-.55 2.63-.67a34.94 34.94 0 0 1 4.4-.43v-.48c0-.8-.26-1.37-.77-1.75a2.96 2.96 0 0 0-1.8-.55 5.5 5.5 0 0 0-2.17.43c-.7.31-1.36.72-1.96 1.2l-3.13-3.43a12.57 12.57 0 0 1 3.57-2.17c1.52-.56 3.12-.83 4.74-.8 2.55 0 4.58.62 6.1 1.85 1.52 1.22 2.28 3.13 2.28 5.7v12.17h-5.87Zm-1-8.75-1.2.1c-.4.04-.8.1-1.23.18-.83.13-1.42.42-1.77.85-.34.41-.52.93-.52 1.46-.01.52.2 1.01.6 1.36.44.38 1.02.57 1.6.54.48 0 .94-.08 1.38-.24.41-.16.8-.37 1.14-.63v-3.62Z"/><path fill="#fff" d="M116.8 71.5a7 7 0 0 0 1.33.56c.45.15.92.23 1.4.24.42.01.84-.09 1.21-.3.36-.24.63-.58.78-.98l1.12-2.5-8.27-18.44h7.59l3.94 11.27 3.91-11.27H137l-9.74 22.85a6.76 6.76 0 0 1-2.82 3.4 8.45 8.45 0 0 1-4.17.99c-.94 0-1.88-.1-2.8-.32-.83-.2-1.64-.48-2.43-.83l1.77-4.66Z"/></svg>
